; generated by PrusaSlicer 2.4.1 on 2022-03-19 at 15:28:17 UTC


;
;

;
;
; 

; external perimeters extrusion width = 0.45mm
; perimeters extrusion width = 0.45mm
; infill extrusion width = 0.45mm
; solid infill extrusion width = 0.45mm
; top infill extrusion width = 0.40mm
; support material extrusion width = 0.35mm
; first layer extrusion width = 0.42mm

M73 P0 R60
M107
;TYPE:Custom
G90 ; use absolute coordinates
M83 ; extruder relative mode
M104 S170 ; set extruder temp for bed leveling
M140 S60 ; set bed temp
M109 R170 ; wait for bed leveling temp
M190 S60 ; wait for bed temp
M204 T1250 ; set travel acceleration
G28 ; home all without mesh bed level
G29 ; mesh bed leveling 
M204 T2500 ; restore travel acceleration
M104 S215 ; set extruder temp
G92 E0
G1 Y-2 X179 F2400
G1 Z3 F720
M109 S215 ; wait for extruder temp

; intro line
G1 X170 F1000
G1 Z0.2 F720
G1 X110 E8 F900
G1 X40 E10 F700
G92 E0

M221 S95 ; set flow
G21 ; set units to millimeters
G90 ; use absolute coordinates
M83 ; use relative distances for extrusion
M900 K0.2 ; Filament gcode LA 1.5
; ; Filament gcode LA 1.0
M107
;LAYER_CHANGE
;Z:0.2
;HEIGHT:0.2
;BEFORE_LAYER_CHANGE
G92 E0.0
;0.2


G1 E-3.2 F4200
G1 Z.2 F720
;AFTER_LAYER_CHANGE
;0.2
G1 Z.4
G1 X76.572 Y75.734 F9000
G1 Z.2 F720
G1 E3.2 F2400
M204 P800
;TYPE:Skirt/Brim
;WIDTH:0.42
G1 F1200
G1 X78.444 Y74.181 E.07627
G1 X79.643 Y73.37 E.04538
G1 X81.055 Y72.571 E.0509
G1 X83.195 Y71.63 E.07329
G1 X84.739 Y71.129 E.0509
G1 X86.147 Y70.793 E.04538
G1 X88.462 Y70.471 E.07329
G1 X90.179 Y70.412 E.05387
G1 X92.511 Y70.573 E.07329
G1 X94.111 Y70.847 E.0509
G1 X96.453 Y71.506 E.07627
G1 X97.962 Y72.103 E.05089
G1 X99.261 Y72.741 E.04538
G1 X101.329 Y74.021 E.07627
G1 X102.613 Y75.015 E.0509
G1 X104.308 Y76.625 E.07329
G1 X105.425 Y77.93 E.05387
G1 X106.753 Y79.854 E.07329
G1 X107.457 Y81.118 E.04538
G1 X108.131 Y82.595 E.0509
G1 X108.884 Y84.808 E.07329
G1 X109.25 Y86.389 E.0509
G1 X109.548 Y88.803 E.07627
G1 X109.581 Y90.426 E.05089
G1 X109.377 Y92.85 E.07627
G1 X109.075 Y94.445 E.0509
G1 X108.535 Y96.308 E.06082
G1 X107.827 Y98.114 E.06082
G1 X107.093 Y99.562 E.0509
G1 X105.832 Y101.53 E.07329
G1 X104.824 Y102.802 E.0509
G1 X103.48 Y104.201 E.06082
G1 X102.014 Y105.471 E.06082
G1 X100.691 Y106.412 E.0509
G1 X98.66 Y107.569 E.07329
G1 X97.176 Y108.226 E.0509
G1 X94.862 Y108.975 E.07626
G1 X93.448 Y109.283 E.04538
G1 X91.839 Y109.502 E.05089
G1 X89.408 Y109.581 E.07627
G1 X87.789 Y109.464 E.0509
G1 X85.394 Y109.041 E.07627
G1 X83.833 Y108.594 E.0509
G1 X81.662 Y107.727 E.07329
G1 X80.141 Y106.929 E.05387
G1 X78.195 Y105.635 E.07329
G1 X76.94 Y104.605 E.0509
G1 X75.898 Y103.6 E.04538
G1 X74.379 Y101.824 E.07329
G1 X73.452 Y100.491 E.0509
G1 X72.281 Y98.359 E.07627
G1 X71.649 Y96.864 E.05089
G1 X71.193 Y95.491 E.04538
G1 X70.656 Y93.118 E.07626
G1 X70.466 Y91.506 E.0509
G1 X70.425 Y89.169 E.07329
G1 X70.573 Y87.457 E.05387
G1 X71.014 Y85.162 E.07329
G1 X71.479 Y83.606 E.0509
G1 X72.003 Y82.257 E.04538
G1 X73.053 Y80.169 E.07329
G1 X73.924 Y78.799 E.0509
G1 X75.437 Y76.895 E.07626
G1 X76.53 Y75.776 E.04902
M204 P1000
G1 X76.799 Y76.04 F9000
M204 P800
G1 F1200
G1 X78.674 Y74.479 E.07648
G1 X79.84 Y73.691 E.04415
G1 X81.219 Y72.91 E.04967
G1 X83.335 Y71.98 E.07247
G1 X84.842 Y71.492 E.04967
G1 X86.212 Y71.165 E.04415
G1 X88.501 Y70.847 E.07247
G1 X90.166 Y70.789 E.05224
G1 X92.472 Y70.948 E.07247
G1 X94.034 Y71.216 E.04967
G1 X96.337 Y71.865 E.07504
G1 X97.81 Y72.448 E.04967
G1 X99.075 Y73.069 E.04416
G1 X101.11 Y74.328 E.07504
G1 X102.363 Y75.298 E.04967
G1 X104.039 Y76.889 E.07247
G1 X105.122 Y78.155 E.05224
G1 X106.435 Y80.057 E.07247
G1 X107.12 Y81.288 E.04416
G1 X107.779 Y82.729 E.04967
G1 X108.523 Y84.917 E.07247
G1 X108.88 Y86.46 E.04967
G1 X109.173 Y88.836 E.07504
G1 X109.204 Y90.42 E.04967
G1 X109.002 Y92.804 E.07504
G1 X108.707 Y94.361 E.04967
G1 X108.178 Y96.186 E.05959
G1 X107.484 Y97.956 E.05959
G1 X106.768 Y99.369 E.04967
G1 X105.522 Y101.316 E.07247
G1 X104.537 Y102.557 E.04967
G1 X103.22 Y103.927 E.05959
G1 X101.784 Y105.172 E.05959
G1 X100.493 Y106.091 E.04967
G1 X98.485 Y107.235 E.07247
G1 X97.036 Y107.876 E.04967
G1 X94.759 Y108.612 E.07504
G1 X93.383 Y108.912 E.04416
G1 X91.813 Y109.126 E.04967
G1 X89.421 Y109.204 E.07504
G1 X87.841 Y109.09 E.04967
G1 X85.484 Y108.675 E.07504
G1 X83.961 Y108.239 E.04967
G1 X81.814 Y107.382 E.07247
G1 X80.339 Y106.608 E.05224
G1 X78.414 Y105.328 E.07247
G1 X77.322 Y104.439 E.04416
G1 X76.176 Y103.345 E.04967
G1 X74.673 Y101.589 E.07247
G1 X73.77 Y100.287 E.04967
G1 X72.618 Y98.19 E.07504
G1 X72.001 Y96.73 E.04967
G1 X71.557 Y95.394 E.04416
G1 X71.029 Y93.06 E.07504
G1 X70.842 Y91.487 E.04967
G1 X70.802 Y89.175 E.07247
G1 X70.946 Y87.516 E.05224
G1 X71.382 Y85.246 E.07247
G1 X71.836 Y83.728 E.04967
G1 X72.345 Y82.415 E.04416
G1 X73.384 Y80.35 E.07247
G1 X74.235 Y79.014 E.04967
G1 X75.724 Y77.14 E.07504
G1 X76.757 Y76.083 E.04635
M204 P1000
G1 E-2.24 F4200
;WIPE_START
G1 F7200
G1 X78.019 Y75.027 E-.912
;WIPE_END
G1 E-.048 F4200
G1 Z.4 F720
G1 X78.656 Y77.949 F9000
G1 Z.2 F720
G1 E3.2 F2400
M204 P800
G1 F1200
G1 X79.46 Y77.239 E.03365
G1 X80.287 Y76.599 E.03276
G1 X81.318 Y75.91 E.03889
G1 X82.388 Y75.304 E.03856
G1 X83.342 Y74.848 E.03313
G1 X84.31 Y74.459 E.03272
G1 X85.572 Y74.054 E.04156
G1 X86.597 Y73.804 E.03309
G1 X87.628 Y73.622 E.03281
G1 X88.941 Y73.485 E.04139
G1 X89.904 Y73.452 E.03024
G1 X90.558 Y73.468 E.02049
G1 X91.23 Y73.497 E.02108
G1 X92.189 Y73.597 E.03024
G1 X93.489 Y73.824 E.04139
G1 X94.516 Y74.08 E.03318
G1 X95.51 Y74.397 E.03272
G1 X96.741 Y74.888 E.04156
G1 X97.683 Y75.345 E.03282
G1 X98.604 Y75.866 E.03316
G1 X99.624 Y76.54 E.03833
G1 X100.608 Y77.301 E.03901
G1 X101.395 Y78.003 E.03305
G1 X102.13 Y78.747 E.03281
G1 X102.992 Y79.754 E.04155
G1 X103.618 Y80.603 E.03309
G1 X104.185 Y81.483 E.03281
G1 X104.821 Y82.645 E.04155
G1 X105.256 Y83.597 E.03281
G1 X105.633 Y84.581 E.03305
G1 X105.995 Y85.768 E.0389
G1 X106.265 Y86.968 E.03858
G1 X106.425 Y88.01 E.03305
G1 X106.518 Y89.052 E.03281
G1 X106.541 Y90.377 E.04155
G1 X106.483 Y91.431 E.03309
G1 X106.36 Y92.47 E.03281
G1 X106.11 Y93.772 E.04156
G1 X105.836 Y94.791 E.03309
G1 X105.502 Y95.781 E.03276
G1 X105.03 Y96.917 E.03857
G1 X104.47 Y98.024 E.0389
G1 X103.929 Y98.929 E.03305
G1 X103.337 Y99.792 E.03281
G1 X102.511 Y100.828 E.04156
G1 X101.795 Y101.604 E.03309
G1 X101.04 Y102.325 E.03276
G1 X100.093 Y103.111 E.03856
G1 X99.083 Y103.831 E.0389
G1 X98.184 Y104.381 E.03305
G1 X97.259 Y104.87 E.03281
G1 X96.046 Y105.403 E.04154
G1 X95.06 Y105.755 E.03281
G1 X94.046 Y106.046 E.03309
G1 X92.749 Y106.318 E.04156
G1 X91.712 Y106.46 E.03281
G1 X90.659 Y106.536 E.03309
G1 X89.334 Y106.536 E.04155
G1 X88.29 Y106.461 E.03281
G1 X87.246 Y106.319 E.03305
G1 X86.041 Y106.069 E.03857
G1 X84.852 Y105.729 E.03877
G1 X83.869 Y105.373 E.03278
G1 X82.899 Y104.95 E.0332
G1 X81.725 Y104.334 E.04155
G1 X80.836 Y103.782 E.03281
G1 X79.977 Y103.171 E.03305
G1 X79.019 Y102.383 E.0389
G1 X78.129 Y101.534 E.03857
G1 X77.425 Y100.762 E.03276
G1 X76.764 Y99.939 E.03309
G1 X76.011 Y98.848 E.04156
G1 X75.476 Y97.938 E.03309
G1 X75.004 Y97.006 E.03276
G1 X74.525 Y95.873 E.03856
G1 X74.128 Y94.698 E.0389
G1 X73.861 Y93.678 E.03305
G1 X73.661 Y92.651 E.03281
G1 X73.501 Y91.335 E.04155
G1 X73.45 Y90.29 E.03281
G1 X73.465 Y89.235 E.03309
G1 X73.579 Y87.914 E.04156
G1 X73.746 Y86.872 E.03309
G1 X73.976 Y85.853 E.03276
G1 X74.328 Y84.674 E.03857
G1 X74.771 Y83.516 E.03889
G1 X75.211 Y82.568 E.03277
G1 X75.714 Y81.64 E.03309
G1 X76.429 Y80.524 E.04156
G1 X77.055 Y79.686 E.03281
G1 X77.739 Y78.882 E.03309
G1 X78.614 Y77.992 E.03913
M204 P1000
G1 X78.882 Y78.256 F9000
M204 P800
G1 F1200
G1 X79.696 Y77.533 E.03412
G1 X80.512 Y76.901 E.03237
G1 X81.51 Y76.234 E.03762
G1 X82.557 Y75.641 E.03773
G1 X83.488 Y75.196 E.03237
G1 X84.444 Y74.811 E.03232
G1 X85.668 Y74.418 E.04029
G1 X86.669 Y74.174 E.03231
G1 X87.687 Y73.994 E.03241
G1 X88.96 Y73.861 E.04014
G1 X89.912 Y73.829 E.02986
G1 X90.547 Y73.845 E.01991
G1 X91.196 Y73.873 E.02039
G1 X92.143 Y73.971 E.02985
G1 X93.404 Y74.191 E.04014
G1 X94.407 Y74.442 E.03241
G1 X95.389 Y74.754 E.03232
G1 X96.583 Y75.23 E.04029
G1 X97.513 Y75.682 E.03242
G1 X98.412 Y76.191 E.03239
G1 X99.41 Y76.851 E.0375
G1 X100.362 Y77.587 E.03774
G1 X101.131 Y78.272 E.03228
G1 X101.857 Y79.007 E.03241
G1 X102.692 Y79.983 E.04028
G1 X103.304 Y80.812 E.03231
G1 X103.864 Y81.681 E.03241
G1 X104.481 Y82.808 E.04028
G1 X104.911 Y83.748 E.03241
G1 X105.278 Y84.71 E.03228
G1 X105.628 Y85.858 E.03763
G1 X105.893 Y87.032 E.03774
G1 X106.05 Y88.05 E.03228
G1 X106.142 Y89.079 E.03241
G1 X106.164 Y90.364 E.04028
G1 X106.108 Y91.393 E.03232
G1 X105.986 Y92.419 E.03241
G1 X105.744 Y93.681 E.04028
G1 X105.477 Y94.677 E.03232
G1 X105.147 Y95.655 E.03236
G1 X104.685 Y96.766 E.03773
G1 X104.142 Y97.836 E.03763
G1 X103.615 Y98.721 E.03228
M73 P1 R60
G1 X103.03 Y99.573 E.03241
G1 X102.229 Y100.577 E.04028
G1 X101.53 Y101.335 E.03232
G1 X100.784 Y102.048 E.03236
G1 X99.858 Y102.817 E.03773
G1 X98.88 Y103.513 E.03763
G1 X98.002 Y104.051 E.03228
G1 X97.089 Y104.534 E.03241
G1 X95.913 Y105.051 E.04027
G1 X94.939 Y105.398 E.03241
G1 X93.948 Y105.681 E.03232
G1 X92.691 Y105.946 E.04029
G1 X91.667 Y106.085 E.03241
G1 X90.639 Y106.159 E.03232
G1 X89.354 Y106.159 E.04028
G1 X88.323 Y106.085 E.03241
G1 X87.303 Y105.946 E.03228
G1 X86.124 Y105.701 E.03774
G1 X84.975 Y105.372 E.0375
G1 X84.003 Y105.02 E.03239
G1 X83.056 Y104.607 E.03242
G1 X81.918 Y104.01 E.04028
G1 X81.04 Y103.465 E.03241
G1 X80.201 Y102.868 E.03228
G1 X79.274 Y102.106 E.03763
G1 X78.403 Y101.275 E.03773
G1 X77.707 Y100.512 E.03237
G1 X77.063 Y99.708 E.03231
G1 X76.333 Y98.65 E.04029
G1 X75.809 Y97.762 E.03232
G1 X75.343 Y96.842 E.03236
G1 X74.875 Y95.733 E.03773
G1 X74.491 Y94.596 E.03763
G1 X74.23 Y93.6 E.03228
G1 X74.033 Y92.585 E.0324
G1 X73.878 Y91.31 E.04028
G1 X73.827 Y90.278 E.03241
G1 X73.842 Y89.247 E.03231
G1 X73.953 Y87.967 E.04029
G1 X74.115 Y86.949 E.03231
G1 X74.342 Y85.942 E.03237
G1 X74.687 Y84.789 E.03773
G1 X75.116 Y83.668 E.03762
G1 X75.55 Y82.732 E.03237
G1 X76.042 Y81.826 E.03231
G1 X76.735 Y80.744 E.04028
G1 X77.354 Y79.916 E.03241
G1 X78.022 Y79.131 E.03231
G1 X78.84 Y78.298 E.03661
M204 P1000
G1 X79.109 Y78.562 F9000
M204 P800
G1 F1200
G1 X79.941 Y77.82 E.03496
G1 X80.738 Y77.204 E.0316
G1 X81.713 Y76.552 E.03679
G1 X82.725 Y75.978 E.03647
G1 X83.634 Y75.543 E.03159
G1 X84.579 Y75.164 E.03192
G1 X85.763 Y74.783 E.03902
G1 X86.752 Y74.542 E.03191
G1 X87.746 Y74.367 E.03163
G1 X88.98 Y74.238 E.0389
G1 X89.919 Y74.206 E.02947
G1 X90.535 Y74.222 E.01932
G1 X91.163 Y74.249 E.0197
G1 X92.098 Y74.346 E.02947
G1 X93.32 Y74.559 E.0389
G1 X94.299 Y74.803 E.03163
G1 X95.269 Y75.111 E.03192
G1 X96.424 Y75.573 E.03902
G1 X97.343 Y76.018 E.03202
G1 X98.221 Y76.516 E.03162
G1 X99.185 Y77.153 E.03624
G1 X100.116 Y77.873 E.0369
G1 X100.875 Y78.549 E.03188
G1 X101.584 Y79.267 E.03163
G1 X102.393 Y80.213 E.03901
G1 X102.997 Y81.031 E.03191
G1 X103.544 Y81.88 E.03163
G1 X104.141 Y82.971 E.03901
G1 X104.56 Y83.888 E.03163
G1 X104.924 Y84.838 E.03188
G1 X105.266 Y85.961 E.0368
G1 X105.522 Y87.096 E.03648
G1 X105.676 Y88.101 E.03188
G1 X105.766 Y89.106 E.03163
G1 X105.787 Y90.35 E.03901
G1 X105.732 Y91.366 E.03192
G1 X105.612 Y92.368 E.03163
G1 X105.378 Y93.59 E.03902
G1 X105.114 Y94.573 E.03192
G1 X104.792 Y95.528 E.03159
G1 X104.345 Y96.602 E.03647
G1 X103.815 Y97.649 E.0368
G1 X103.294 Y98.522 E.03188
G1 X102.723 Y99.354 E.03163
G1 X101.947 Y100.327 E.03902
G1 X101.257 Y101.075 E.03192
G1 X100.528 Y101.771 E.03159
G1 X99.633 Y102.514 E.03647
G1 X98.678 Y103.195 E.0368
G1 X97.811 Y103.726 E.03188
G1 X96.919 Y104.197 E.03163
G1 X95.78 Y104.698 E.03901
G1 X94.83 Y105.037 E.03163
G1 X93.851 Y105.317 E.03192
G1 X92.633 Y105.573 E.03902
G1 X91.634 Y105.709 E.03163
G1 X90.619 Y105.782 E.03192
G1 X89.374 Y105.782 E.03902
G1 X88.368 Y105.71 E.03163
G1 X87.361 Y105.573 E.03188
G1 X86.208 Y105.334 E.03691
G1 X85.097 Y105.016 E.03624
G1 X84.138 Y104.668 E.03199
G1 X83.213 Y104.264 E.03164
G1 X82.111 Y103.686 E.03901
G1 X81.254 Y103.154 E.03163
G1 X80.425 Y102.564 E.03188
G1 X79.519 Y101.819 E.0368
G1 X78.677 Y101.016 E.03647
G1 X77.99 Y100.263 E.03197
G1 X77.361 Y99.478 E.03154
G1 X76.654 Y98.453 E.03903
G1 X76.137 Y97.576 E.03192
G1 X75.682 Y96.677 E.03159
G1 X75.23 Y95.606 E.03647
G1 X74.854 Y94.494 E.0368
G1 X74.597 Y93.51 E.03188
G1 X74.404 Y92.52 E.03163
G1 X74.254 Y91.285 E.03901
G1 X74.204 Y90.277 E.03163
G1 X74.219 Y89.259 E.03191
G1 X74.326 Y88.02 E.03902
G1 X74.486 Y87.015 E.03191
G1 X74.708 Y86.032 E.0316
G1 X75.042 Y84.917 E.03647
G1 X75.461 Y83.821 E.03679
G1 X75.884 Y82.906 E.0316
G1 X76.37 Y82.012 E.03191
G1 X77.041 Y80.964 E.03902
G1 X77.645 Y80.156 E.03163
G1 X78.304 Y79.381 E.03191
G1 X79.067 Y78.605 E.03409
M204 P1000
G1 X79.335 Y78.869 F9000
M204 P800
G1 F1200
G1 X80.176 Y78.115 E.03542
G1 X80.963 Y77.506 E.0312
G1 X81.905 Y76.876 E.03553
G1 X82.894 Y76.316 E.03564
G1 X83.791 Y75.886 E.0312
G1 X84.713 Y75.516 E.03113
G1 X85.859 Y75.148 E.03776
G1 X86.824 Y74.912 E.03113
G1 X87.805 Y74.739 E.03123
G1 X88.999 Y74.615 E.03765
G1 X89.926 Y74.583 E.02908
G1 X90.524 Y74.598 E.01874
G1 X91.13 Y74.624 E.01902
G1 X92.052 Y74.72 E.02908
M73 P1 R59
G1 X93.235 Y74.927 E.03765
G1 X94.202 Y75.167 E.03122
G1 X95.148 Y75.469 E.03113
G1 X96.266 Y75.915 E.03775
G1 X97.163 Y76.349 E.03124
G1 X98.029 Y76.84 E.03122
G1 X98.971 Y77.464 E.03541
G1 X99.87 Y78.159 E.03564
G1 X100.611 Y78.819 E.03111
G1 X101.311 Y79.527 E.03123
G1 X102.094 Y80.442 E.03775
G1 X102.684 Y81.241 E.03113
G1 X103.223 Y82.078 E.03123
G1 X103.801 Y83.134 E.03774
G1 X104.215 Y84.04 E.03123
G1 X104.569 Y84.967 E.03111
G1 X104.899 Y86.051 E.03554
G1 X105.15 Y87.16 E.03565
G1 X105.301 Y88.14 E.03111
G1 X105.389 Y89.132 E.03123
G1 X105.41 Y90.336 E.03775
G1 X105.356 Y91.328 E.03114
G1 X105.239 Y92.317 E.03123
G1 X105.012 Y93.499 E.03775
G1 X104.755 Y94.458 E.03113
G1 X104.437 Y95.401 E.0312
G1 X104 Y96.45 E.03564
G1 X103.488 Y97.462 E.03554
G1 X102.98 Y98.314 E.03111
G1 X102.416 Y99.135 E.03123
G1 X101.666 Y100.076 E.03775
G1 X100.993 Y100.806 E.03114
G1 X100.273 Y101.493 E.0312
G1 X99.398 Y102.219 E.03564
G1 X98.475 Y102.877 E.03554
G1 X97.629 Y103.395 E.03111
G1 X96.748 Y103.86 E.03122
G1 X95.647 Y104.345 E.03774
G1 X94.709 Y104.68 E.03122
G1 X93.754 Y104.953 E.03113
G1 X92.576 Y105.2 E.03775
G1 X91.589 Y105.335 E.03122
G1 X90.598 Y105.406 E.03113
G1 X89.394 Y105.406 E.03775
G1 X88.401 Y105.335 E.03123
G1 X87.418 Y105.2 E.03111
G1 X86.305 Y104.969 E.03564
G1 X85.219 Y104.659 E.03541
G1 X84.283 Y104.32 E.03122
G1 X83.37 Y103.921 E.03124
G1 X82.304 Y103.361 E.03775
G1 X81.457 Y102.837 E.03123
G1 X80.649 Y102.261 E.03111
G1 X79.774 Y101.541 E.03554
G1 X78.951 Y100.757 E.03564
G1 X78.281 Y100.022 E.0312
G1 X77.66 Y99.247 E.03113
G1 X76.975 Y98.256 E.03776
G1 X76.471 Y97.401 E.03114
G1 X76.022 Y96.513 E.0312
G1 X75.58 Y95.466 E.03564
G1 X75.217 Y94.392 E.03554
G1 X74.966 Y93.432 E.03111
G1 X74.775 Y92.454 E.03122
G1 X74.63 Y91.259 E.03774
G1 X74.581 Y90.265 E.03123
G1 X74.596 Y89.272 E.03113
G1 X74.7 Y88.072 E.03776
G1 X74.856 Y87.092 E.03113
G1 X75.075 Y86.121 E.0312
G1 X75.401 Y85.032 E.03564
G1 X75.805 Y83.973 E.03553
G1 X76.224 Y83.071 E.0312
G1 X76.698 Y82.198 E.03113
G1 X77.348 Y81.184 E.03775
G1 X77.943 Y80.386 E.03123
G1 X78.587 Y79.63 E.03113
G1 X79.293 Y78.912 E.03158
M204 P1000
G1 X79.562 Y79.176 F9000
M204 P800
G1 F1200
G1 X80.421 Y78.402 E.03627
G1 X81.189 Y77.808 E.03042
G1 X82.109 Y77.194 E.0347
G1 X83.063 Y76.653 E.03438
G1 X83.938 Y76.234 E.03042
G1 X84.847 Y75.868 E.03073
G1 X85.955 Y75.513 E.03649
G1 X86.907 Y75.28 E.03073
G1 X87.864 Y75.112 E.03045
G1 X89.019 Y74.991 E.03641
G1 X89.933 Y74.96 E.0287
G1 X91.097 Y75 E.03649
G1 X92.007 Y75.095 E.02869
G1 X93.151 Y75.294 E.03641
G1 X94.093 Y75.528 E.03044
G1 X95.027 Y75.826 E.03073
G1 X96.108 Y76.257 E.03649
G1 X96.993 Y76.686 E.03083
G1 X97.837 Y77.165 E.03044
G1 X98.746 Y77.766 E.03416
G1 X99.624 Y78.445 E.03481
G1 X100.356 Y79.096 E.03071
G1 X101.038 Y79.787 E.03044
G1 X101.794 Y80.672 E.03648
G1 X102.377 Y81.46 E.03073
