; generated by PrusaSlicer 2.4.1+win64 on 2022-03-20 at 12:19:56 UTC


;
;

;
;
; 

; external perimeters extrusion width = 0.45mm
; perimeters extrusion width = 0.45mm
; infill extrusion width = 0.45mm
; solid infill extrusion width = 0.45mm
; top infill extrusion width = 0.40mm
; first layer extrusion width = 0.42mm

M73 P0 R48
M201 X2500 Y2500 Z400 E5000 ; sets maximum accelerations, mm/sec^2
M203 X180 Y180 Z12 E80 ; sets maximum feedrates, mm / sec
M204 P1250 R1250 T2500 ; sets acceleration (P, T) and retract acceleration (R), mm/sec^2
M205 X8.00 Y8.00 Z2.00 E10.00 ; sets the jerk limits, mm/sec
M205 S0 T0 ; sets the minimum extruding and travel feed rate, mm/sec
M107
;TYPE:Custom
M862.3 P "MINI" ; printer model check
G90 ; use absolute coordinates
M83 ; extruder relative mode
M104 S170 ; set extruder temp for bed leveling
M140 S60 ; set bed temp
M109 R170 ; wait for bed leveling temp
M190 S60 ; wait for bed temp
M204 T1250 ; set travel acceleration
G28 ; home all without mesh bed level
G29 ; mesh bed leveling 
M204 T2500 ; restore travel acceleration
M104 S215 ; set extruder temp
G92 E0
G1 Y-2 X179 F2400
G1 Z3 F720
M109 S215 ; wait for extruder temp

; intro line
G1 X170 F1000
G1 Z0.2 F720
G1 X110 E8 F900
G1 X40 E10 F700
G92 E0

M221 S95 ; set flow
G21 ; set units to millimeters
G90 ; use absolute coordinates
M83 ; use relative distances for extrusion
M900 K0.2 ; Filament gcode LA 1.5
; ; Filament gcode LA 1.0
M107
;LAYER_CHANGE
;Z:0.2
;HEIGHT:0.2
;BEFORE_LAYER_CHANGE
G92 E0.0
;0.2


G1 E-3.2 F4200
G1 Z.2 F720
;AFTER_LAYER_CHANGE
;0.2
G1 Z.4
G1 X76.928 Y79.037 F9000
G1 Z.2 F720
G1 E3.2 F2400
M204 P800
;TYPE:Skirt/Brim
;WIDTH:0.42
G1 F1200
G1 X77.797 Y78.262 E.03651
G1 X79.244 Y77.203 E.05622
G1 X80.246 Y76.61 E.03651
G1 X82.036 Y75.785 E.0618
G1 X83.745 Y75.242 E.05622
G1 X84.884 Y74.998 E.0365
G1 X86.665 Y74.795 E.05622
G1 X87.829 Y74.776 E.0365
G1 X88.814 Y74.83 E.03092
G1 X90.588 Y75.09 E.05622
G1 X92.573 Y75.642 E.06459
G1 X100.005 Y78.299 E.24747
G1 X101.641 Y79.145 E.05774
G1 X102.57 Y79.771 E.03514
G1 X103.824 Y80.832 E.0515
G1 X104.977 Y82.107 E.0539
G1 X105.702 Y83.117 E.03898
G1 X106.499 Y84.553 E.0515
G1 X106.934 Y85.586 E.03514
G1 X107.403 Y87.16 E.0515
G1 X107.683 Y88.98 E.05774
G1 X107.724 Y90.1 E.03514
G1 X107.605 Y91.738 E.0515
G1 X107.253 Y93.42 E.05389
G1 X106.863 Y94.601 E.03898
G1 X106.172 Y96.091 E.0515
G1 X105.593 Y97.05 E.03514
G1 X104.464 Y98.506 E.05774
G1 X103.29 Y99.654 E.0515
G1 X102.409 Y100.346 E.03514
G1 X101.014 Y101.215 E.0515
G1 X100.005 Y101.701 E.03514
G1 X91.718 Y104.631 E.27558
G1 X89.617 Y105.079 E.06738
G1 X88.636 Y105.185 E.03092
G1 X86.843 Y105.213 E.05622
G1 X85.683 Y105.119 E.03651
G1 X83.918 Y104.801 E.05622
G1 X82.798 Y104.484 E.03651
G1 X81.128 Y103.832 E.05622
G1 X80.09 Y103.304 E.03651
G1 X78.577 Y102.342 E.05622
G1 X77.66 Y101.624 E.03651
G1 X76.362 Y100.387 E.05622
G1 X75.601 Y99.506 E.03651
G1 X74.566 Y98.042 E.05622
G1 X73.989 Y97.03 E.0365
G1 X73.256 Y95.394 E.05622
G1 X72.886 Y94.29 E.03651
G1 X72.483 Y92.543 E.05622
G1 X72.333 Y91.388 E.0365
G1 X72.275 Y89.596 E.05622
G1 X72.35 Y88.434 E.03651
G1 X72.639 Y86.665 E.05622
G1 X72.937 Y85.539 E.03651
G1 X73.563 Y83.859 E.05622
G1 X74.073 Y82.812 E.03651
G1 X75.011 Y81.284 E.05622
G1 X75.713 Y80.355 E.0365
G1 X76.888 Y79.081 E.05434
M204 P1000
G1 X77.165 Y79.337 F9000
M204 P800
G1 F1200
G1 X78.029 Y78.559 E.03647
G1 X79.457 Y77.514 E.05546
G1 X80.417 Y76.946 E.03498
G1 X82.019 Y76.197 E.05545
G1 X83.715 Y75.642 E.05597
G1 X84.938 Y75.372 E.03928
G1 X86.696 Y75.171 E.05546
G1 X87.811 Y75.153 E.03497
G1 X88.771 Y75.204 E.03015
G1 X90.521 Y75.461 E.05546
G1 X92.447 Y75.998 E.06268
G1 X99.866 Y78.65 E.24704
G1 X101.453 Y79.472 E.05603
G1 X102.337 Y80.068 E.03342
G1 X103.57 Y81.111 E.05065
G1 X104.686 Y82.346 E.05218
G1 X105.379 Y83.311 E.03727
G1 X106.163 Y84.724 E.05065
G1 X106.808 Y86.39 E.05603
G1 X107.075 Y87.422 E.03343
G1 X107.308 Y89.021 E.05065
G1 X107.347 Y90.086 E.03342
G1 X107.23 Y91.697 E.05065
G1 X106.888 Y93.326 E.05218
G1 X106.516 Y94.455 E.03727
G1 X105.836 Y95.92 E.05065
G1 X105.285 Y96.833 E.03343
G1 X104.305 Y98.117 E.05065
G1 X103.127 Y99.293 E.05218
G1 X102.198 Y100.034 E.03727
G1 X100.827 Y100.888 E.05065
G1 X99.866 Y101.35 E.03343
G1 X91.604 Y104.271 E.27477
G1 X89.574 Y104.704 E.06509
G1 X88.618 Y104.808 E.03015
G1 X86.849 Y104.836 E.05545
G1 X85.738 Y104.746 E.03498
G1 X83.997 Y104.432 E.05545
G1 X82.924 Y104.129 E.03498
G1 X81.276 Y103.485 E.05546
G1 X80.282 Y102.98 E.03498
G1 X78.79 Y102.03 E.05546
G1 X77.911 Y101.343 E.03498
G1 X76.631 Y100.123 E.05546
G1 X75.902 Y99.279 E.03498
G1 X74.881 Y97.834 E.05546
G1 X74.328 Y96.865 E.03497
G1 X73.605 Y95.251 E.05546
G1 X73.251 Y94.193 E.03497
G1 X72.853 Y92.47 E.05546
G1 X72.709 Y91.364 E.03497
G1 X72.652 Y89.596 E.05546
G1 X72.724 Y88.483 E.03498
G1 X73.009 Y86.737 E.05546
G1 X73.295 Y85.659 E.03498
G1 X73.912 Y84.002 E.05546
G1 X74.4 Y82.999 E.03498
G1 X75.325 Y81.491 E.05546
G1 X75.998 Y80.602 E.03497
G1 X77.124 Y79.381 E.05208
M204 P1000
; printing object Joystick fauteuil Ludovic V2.stl id:0 copy 0
G1 E-2.24 F4200
;WIPE_START
G1 F7200
G1 X78.029 Y78.559 E-.67765
G1 X78.371 Y78.309 E-.23435
;WIPE_END
G1 E-.048 F4200
G1 Z.4 F720
G1 X83.887 Y86.102 F9000
G1 Z.2 F720
G1 E3.2 F2400
M204 P800
;TYPE:Perimeter
G1 F1200
G1 X84.328 Y85.733 E.01803
G1 X84.82 Y85.407 E.01851
G1 X85.349 Y85.137 E.01862
G1 X85.905 Y84.928 E.01862
G1 X86.479 Y84.782 E.01858
G1 X87.066 Y84.702 E.01856
G1 X87.604 Y84.687 E.01687
G1 X88.248 Y84.738 E.02028
G1 X88.834 Y84.856 E.01874
G1 X89.395 Y85.036 E.01847
G1 X89.886 Y85.251 E.01679
G1 X90.399 Y85.546 E.01856
G1 X90.877 Y85.897 E.01859
G1 X91.313 Y86.299 E.0186
G1 X91.702 Y86.748 E.01862
G1 X92.036 Y87.235 E.01853
G1 X92.291 Y87.706 E.01679
G1 X92.518 Y88.256 E.01864
G1 X92.691 Y88.879 E.02027
G1 X92.78 Y89.409 E.01686
G1 X92.813 Y90 E.01856
G1 X92.78 Y90.591 E.01856
G1 X92.691 Y91.121 E.01686
G1 X92.518 Y91.744 E.02027
G1 X92.291 Y92.294 E.01864
G1 X92.036 Y92.765 E.01679
G1 X91.702 Y93.252 E.01853
G1 X91.313 Y93.701 E.01862
G1 X90.877 Y94.103 E.01859
G1 X90.445 Y94.42 E.0168
G1 X89.889 Y94.747 E.02025
G1 X89.339 Y94.986 E.01877
G1 X88.775 Y95.159 E.01851
G1 X88.249 Y95.262 E.01679
G1 X87.656 Y95.314 E.01867
G1 X87.011 Y95.291 E.02026
G1 X86.479 Y95.218 E.01684
G1 X85.905 Y95.072 E.01856
G1 X85.349 Y94.863 E.01862
G1 X84.82 Y94.593 E.01862
G1 X84.328 Y94.267 E.01851
G1 X83.914 Y93.927 E.01679
G1 X83.501 Y93.505 E.01852
G1 X83.134 Y93.038 E.01862
G1 X82.823 Y92.533 E.01861
G1 X82.594 Y92.048 E.01679
G1 X82.379 Y91.44 E.02024
G1 X82.25 Y90.855 E.01878
G1 X82.188 Y90.268 E.01852
G1 X82.188 Y89.732 E.01679
G1 X82.25 Y89.145 E.01852
G1 X82.378 Y88.565 E.01862
G1 X82.57 Y88.003 E.01862
G1 X82.822 Y87.468 E.01855
G1 X83.104 Y87.01 E.01684
G1 X83.497 Y86.498 E.02026
G1 X83.845 Y86.144 E.01554
M204 P1000
G1 X84.156 Y86.366 F9000
M204 P800
G1 F1200
G1 X84.552 Y86.037 E.01617
G1 X85.011 Y85.734 E.01723
G1 X85.502 Y85.483 E.01729
G1 X86.018 Y85.288 E.01729
G1 X86.552 Y85.153 E.01726
G1 X87.097 Y85.078 E.01726
G1 X87.594 Y85.064 E.01559
G1 X88.196 Y85.112 E.01894
G1 X88.739 Y85.222 E.01737
G1 X89.261 Y85.389 E.0172
G1 X89.716 Y85.589 E.01555
G1 X90.193 Y85.863 E.01726
M73 P1 R48
G1 X90.637 Y86.189 E.01726
G1 X91.042 Y86.562 E.01728
G1 X91.403 Y86.979 E.01729
G1 X91.714 Y87.432 E.01724
G1 X91.95 Y87.868 E.01554
G1 X92.161 Y88.378 E.0173
G1 X92.322 Y88.96 E.01894
G1 X92.404 Y89.451 E.01559
G1 X92.435 Y90 E.01725
G1 X92.404 Y90.549 E.01725
G1 X92.322 Y91.04 E.01559
G1 X92.161 Y91.622 E.01894
G1 X91.95 Y92.132 E.0173
G1 X91.714 Y92.568 E.01554
G1 X91.403 Y93.021 E.01724
G1 X91.042 Y93.438 E.01729
G1 X90.637 Y93.811 E.01727
G1 X90.237 Y94.105 E.01554
G1 X89.717 Y94.411 E.01892
G1 X89.209 Y94.632 E.01739
G1 X88.683 Y94.793 E.01723
G1 X88.197 Y94.888 E.01554
G1 X87.646 Y94.936 E.01733
G1 X87.043 Y94.915 E.01892
G1 X86.551 Y94.847 E.01557
G1 X86.018 Y94.712 E.01725
G1 X85.502 Y94.517 E.01729
G1 X85.011 Y94.266 E.01729
G1 X84.552 Y93.963 E.01723
G1 X84.17 Y93.648 E.01555
G1 X83.784 Y93.256 E.01723
G1 X83.444 Y92.822 E.01729
G1 X83.155 Y92.353 E.01729
G1 X82.943 Y91.905 E.01553
G1 X82.743 Y91.336 E.01891
M73 P1 R47
G1 X82.623 Y90.794 E.01739
G1 X82.565 Y90.248 E.01723
G1 X82.565 Y89.752 E.01555
G1 X82.623 Y89.206 E.01723
G1 X82.742 Y88.667 E.01729
G1 X82.92 Y88.145 E.0173
G1 X83.155 Y87.648 E.01723
G1 X83.415 Y87.225 E.01558
G1 X83.782 Y86.746 E.01893
G1 X84.114 Y86.409 E.01482
M204 P1000
G1 X84.425 Y86.63 F9000
M204 P800
;TYPE:External perimeter
G1 F1200
G1 X84.777 Y86.34 E.0143
G1 X85.201 Y86.06 E.01595
G1 X85.655 Y85.828 E.01597
G1 X86.131 Y85.649 E.01597
G1 X86.624 Y85.524 E.01593
G1 X87.128 Y85.454 E.01595
G1 X87.584 Y85.442 E.01432
G1 X88.144 Y85.486 E.0176
G1 X88.644 Y85.587 E.016
G1 X89.128 Y85.743 E.01593
G1 X89.545 Y85.926 E.0143
G1 X89.987 Y86.179 E.01596
G1 X90.397 Y86.48 E.01594
G1 X90.771 Y86.825 E.01595
G1 X91.104 Y87.21 E.01597
G1 X91.392 Y87.629 E.01595
G1 X91.609 Y88.03 E.0143
G1 X91.803 Y88.501 E.01597
G1 X91.954 Y89.042 E.0176
G1 X92.029 Y89.492 E.01432
G1 X92.057 Y90 E.01594
G1 X92.029 Y90.508 E.01594
G1 X91.954 Y90.958 E.01432
G1 X91.803 Y91.499 E.0176
G1 X91.609 Y91.97 E.01597
G1 X91.392 Y92.371 E.0143
G1 X91.104 Y92.79 E.01595
G1 X90.771 Y93.175 E.01597
G1 X90.397 Y93.52 E.01595
G1 X90.03 Y93.79 E.01428
G1 X89.546 Y94.074 E.01759
G1 X89.078 Y94.277 E.016
G1 X88.592 Y94.426 E.01595
G1 X88.144 Y94.514 E.0143
G1 X87.636 Y94.558 E.01598
G1 X87.076 Y94.539 E.01759
G1 X86.624 Y94.476 E.0143
G1 X86.131 Y94.351 E.01593
G1 X85.655 Y94.172 E.01597
G1 X85.201 Y93.94 E.01597
G1 X84.777 Y93.66 E.01595
G1 X84.425 Y93.37 E.0143
G1 X84.068 Y93.007 E.01595
G1 X83.754 Y92.606 E.01597
G1 X83.487 Y92.173 E.01597
G1 X83.293 Y91.761 E.01427
G1 X83.106 Y91.232 E.01759
G1 X82.996 Y90.734 E.016
G1 X82.942 Y90.228 E.01595
G1 X82.942 Y89.772 E.0143
G1 X82.996 Y89.266 E.01595
G1 X83.106 Y88.769 E.01597
G1 X83.27 Y88.287 E.01597
G1 X83.487 Y87.828 E.01592
G1 X83.726 Y87.439 E.01431
G1 X84.068 Y86.994 E.01759
G1 X84.383 Y86.673 E.0141
M204 P1000
G1 X84.337 Y86.24 F9000
G1 E-2.24 F4200
;WIPE_START
G1 F7200
G1 X84.777 Y86.34 E-.28584
G1 X85.201 Y86.06 E-.28183
G1 X85.655 Y85.828 E-.28225
G1 X85.759 Y85.789 E-.06208
;WIPE_END
G1 E-.048 F4200
G1 Z.4 F720
G1 X80.054 Y81.735 F9000
G1 Z.2 F720
G1 E3.2 F2400
M204 P800
;TYPE:Perimeter
G1 F1200
G1 X80.358 Y81.463 E.01278
G1 X80.925 Y81.019 E.02259
G1 X81.52 Y80.613 E.0226
G1 X82.141 Y80.245 E.02259
G1 X82.783 Y79.919 E.0226
G1 X83.445 Y79.635 E.02259
G1 X84.125 Y79.395 E.0226
G1 X84.818 Y79.199 E.02259
G1 X85.523 Y79.048 E.0226
G1 X86.236 Y78.943 E.02259
G1 X86.954 Y78.885 E.0226
G1 X87.675 Y78.873 E.02259
G1 X88.394 Y78.908 E.0226
G1 X89.11 Y78.989 E.02259
G1 X89.82 Y79.117 E.02259
G1 X90.519 Y79.29 E.02259
G1 X91.224 Y79.514 E.02319
G1 X97.853 Y81.858 E.22046
G1 X98.454 Y82.095 E.02025
G1 X99.017 Y82.366 E.01958
G1 X99.558 Y82.676 E.01958
G1 X100.076 Y83.026 E.01958
G1 X100.568 Y83.411 E.01959
G1 X101.03 Y83.832 E.01958
G1 X101.46 Y84.284 E.01958
G1 X101.857 Y84.767 E.01959
G1 X102.217 Y85.277 E.01958
G1 X102.54 Y85.812 E.01959
G1 X102.823 Y86.368 E.01958
G1 X103.066 Y86.944 E.01958
G1 X103.266 Y87.536 E.01959
G1 X103.422 Y88.14 E.01958
G1 X103.535 Y88.755 E.01958
G1 X103.602 Y89.376 E.01958
G1 X103.625 Y90 E.01959
G1 X103.602 Y90.624 E.01959
G1 X103.535 Y91.245 E.01958
G1 X103.422 Y91.86 E.01958
G1 X103.266 Y92.464 E.01958
G1 X103.066 Y93.056 E.01959
G1 X102.823 Y93.632 E.01958
G1 X102.54 Y94.188 E.01958
G1 X102.217 Y94.723 E.01959
G1 X101.857 Y95.233 E.01958
G1 X101.46 Y95.716 E.01959
G1 X101.03 Y96.168 E.01958
G1 X100.568 Y96.589 E.01958
G1 X100.076 Y96.974 E.01958
G1 X99.558 Y97.324 E.01959
G1 X99.017 Y97.634 E.01958
G1 X98.454 Y97.905 E.01959
G1 X97.853 Y98.142 E.02024
G1 X91.224 Y100.486 E.22046
G1 X90.519 Y100.71 E.02319
G1 X89.82 Y100.883 E.02259
G1 X89.11 Y101.011 E.02259
G1 X88.394 Y101.092 E.02259
G1 X87.675 Y101.127 E.0226
G1 X86.954 Y101.115 E.02259
G1 X86.236 Y101.057 E.0226
G1 X85.523 Y100.952 E.02259
G1 X84.818 Y100.801 E.02259
G1 X84.125 Y100.605 E.02259
G1 X83.445 Y100.365 E.02259
G1 X82.783 Y100.081 E.02259
G1 X82.141 Y99.755 E.02259
G1 X81.52 Y99.387 E.02259
G1 X80.925 Y98.981 E.0226
G1 X80.358 Y98.537 E.02259
G1 X79.82 Y98.057 E.02259
G1 X79.315 Y97.543 E.02259
G1 X78.844 Y96.998 E.0226
G1 X78.409 Y96.423 E.02259
G1 X78.013 Y95.822 E.0226
G1 X77.656 Y95.195 E.02259
G1 X77.34 Y94.548 E.02259
G1 X77.067 Y93.881 E.0226
G1 X76.838 Y93.198 E.02259
G1 X76.653 Y92.501 E.0226
G1 X76.514 Y91.794 E.02259
G1 X76.421 Y91.079 E.02259
G1 X76.374 Y90.36 E.02259
G1 X76.374 Y89.64 E.02259
G1 X76.421 Y88.921 E.02259
G1 X76.514 Y88.206 E.02259
G1 X76.653 Y87.499 E.02259
G1 X76.838 Y86.802 E.0226
G1 X77.067 Y86.119 E.02259
G1 X77.34 Y85.452 E.0226
G1 X77.656 Y84.805 E.02259
G1 X78.013 Y84.179 E.02259
G1 X78.409 Y83.577 E.0226
G1 X78.844 Y83.002 E.02259
G1 X79.315 Y82.457 E.02259
G1 X80.009 Y81.775 E.03052
M204 P1000
G1 X79.803 Y81.453 F9000
M204 P800
G1 F1200
G1 X80.116 Y81.174 E.01316
G1 X80.703 Y80.715 E.02336
G1 X81.318 Y80.294 E.02336
G1 X81.959 Y79.915 E.02336
G1 X82.623 Y79.578 E.02336
G1 X83.308 Y79.284 E.02336
G1 X84.01 Y79.035 E.02336
G1 X84.727 Y78.833 E.02336
G1 X85.456 Y78.677 E.02336
G1 X86.193 Y78.569 E.02336
G1 X86.936 Y78.508 E.02336
G1 X87.681 Y78.496 E.02336
G1 X88.425 Y78.532 E.02336
G1 X89.165 Y78.616 E.02336
G1 X89.898 Y78.748 E.02336
G1 X90.622 Y78.927 E.02336
G1 X91.344 Y79.156 E.02376
G1 X97.985 Y81.504 E.22087
G1 X98.605 Y81.749 E.02089
G1 X99.192 Y82.032 E.02044
G1 X99.758 Y82.356 E.02044
G1 X100.298 Y82.721 E.02044
G1 X100.811 Y83.123 E.02044
G1 X101.293 Y83.562 E.02044
G1 X101.743 Y84.034 E.02044
G1 X102.157 Y84.538 E.02044
G1 X102.533 Y85.07 E.02044
G1 X102.87 Y85.628 E.02044
G1 X103.166 Y86.209 E.02044
G1 X103.418 Y86.81 E.02044
G1 X103.627 Y87.428 E.02044
G1 X103.791 Y88.059 E.02044
G1 X103.908 Y88.7 E.02044
G1 X103.979 Y89.348 E.02044
G1 X104.002 Y90 E.02044
G1 X103.979 Y90.652 E.02044
G1 X103.908 Y91.3 E.02044
G1 X103.791 Y91.941 E.02044
G1 X103.627 Y92.572 E.02044
G1 X103.418 Y93.19 E.02044
G1 X103.166 Y93.791 E.02044
G1 X102.87 Y94.372 E.02044
G1 X102.533 Y94.93 E.02044
G1 X102.157 Y95.462 E.02044
G1 X101.743 Y95.966 E.02044
G1 X101.293 Y96.438 E.02044
G1 X100.811 Y96.877 E.02044
G1 X100.298 Y97.279 E.02044
G1 X99.758 Y97.644 E.02044
G1 X99.192 Y97.968 E.02044
G1 X98.605 Y98.251 E.02044
G1 X97.985 Y98.496 E.02089
G1 X91.344 Y100.844 E.22087
G1 X90.622 Y101.073 E.02376
G1 X89.898 Y101.252 E.02336
G1 X89.165 Y101.384 E.02336
G1 X88.425 Y101.468 E.02336
G1 X87.681 Y101.504 E.02336
G1 X86.936 Y101.492 E.02336
G1 X86.193 Y101.431 E.02336
G1 X85.456 Y101.323 E.02336
G1 X84.727 Y101.167 E.02336
G1 X84.01 Y100.965 E.02336
G1 X83.308 Y100.716 E.02336
G1 X82.623 Y100.422 E.02336
G1 X81.959 Y100.085 E.02336
G1 X81.318 Y99.706 E.02336
G1 X80.703 Y99.285 E.02336
G1 X80.116 Y98.826 E.02336
G1 X79.56 Y98.33 E.02336
G1 X79.038 Y97.799 E.02336
G1 X78.551 Y97.235 E.02336
G1 X78.101 Y96.641 E.02336
G1 X77.691 Y96.019 E.02336
G1 X77.322 Y95.372 E.02336
G1 X76.996 Y94.702 E.02336
G1 X76.713 Y94.012 E.02336
G1 X76.476 Y93.306 E.02336
G1 X76.285 Y92.586 E.02336
G1 X76.142 Y91.855 E.02336
G1 X76.045 Y91.116 E.02336
G1 X75.997 Y90.373 E.02336
G1 X75.997 Y89.627 E.02336
G1 X76.045 Y88.884 E.02336
G1 X76.142 Y88.145 E.02336
G1 X76.285 Y87.414 E.02336
G1 X76.476 Y86.694 E.02336
G1 X76.713 Y85.988 E.02336
G1 X76.996 Y85.298 E.02336
G1 X77.322 Y84.628 E.02336
G1 X77.691 Y83.981 E.02336
G1 X78.101 Y83.359 E.02336
G1 X78.551 Y82.765 E.02336
G1 X79.038 Y82.201 E.02336
G1 X79.56 Y81.67 E.02336
G1 X79.758 Y81.493 E.00832
M204 P1000
G1 X79.552 Y81.172 F9000
M204 P800
;TYPE:External perimeter
G1 F1200
G1 X79.874 Y80.884 E.01354
G1 X80.48 Y80.41 E.02413
G1 X81.115 Y79.976 E.02413
G1 X81.777 Y79.584 E.02413
G1 X82.464 Y79.236 E.02413
G1 X83.171 Y78.933 E.02413
G1 X83.896 Y78.676 E.02413
G1 X84.637 Y78.467 E.02413
G1 X85.389 Y78.306 E.02413
G1 X86.15 Y78.194 E.02413
G1 X86.917 Y78.131 E.02413
G1 X87.687 Y78.119 E.02413
G1 X88.455 Y78.156 E.02413
G1 X89.22 Y78.243 E.02413
